src/assets/icons/cart-arrow-down.svg

<svg width="14" height="14" viewBox="0 0 14 14" fill="none" xmlns="http://www.w3.org/2000/svg">
<g id="cart-arrow-down">
<g clip-path="url(#clip0_295_4695)">
<path id="Vector" fill-rule="evenodd" clip-rule="evenodd" d="M0 1.00002C0 0.668651 0.268626 0.400024 0.599994 0.400024H2.19998C2.48995 0.400024 2.73842 0.607397 2.79029 0.892688L4.3007 9.19993H11.3314L12.8178 3.25447C12.8982 2.933 13.2239 2.73755 13.5454 2.81791C13.8669 2.89828 14.0623 3.22404 13.9819 3.54551L12.382 9.94545C12.3152 10.2125 12.0752 10.3999 11.7999 10.3999H3.79996C3.50999 10.3999 3.26152 10.1926 3.20965 9.90726L1.69924 1.60001H0.599994C0.268626 1.60001 0 1.33139 0 1.00002ZM3.99996 12.3999C3.99996 13.0639 4.53595 13.5999 5.19995 13.5999C5.86394 13.5999 6.39994 13.0639 6.39994 12.3999C6.39994 11.7359 5.86394 11.1999 5.19995 11.1999C4.53595 11.1999 3.99996 11.7359 3.99996 12.3999ZM9.19991 12.3999C9.19991 13.0639 9.7359 13.5999 10.3999 13.5999C11.0639 13.5999 11.5999 13.0639 11.5999 12.3999C11.5999 11.7359 11.0639 11.1999 10.3999 11.1999C9.7359 11.1999 9.19991 11.7359 9.19991 12.3999ZM8.39991 1.80001C8.39991 1.46864 8.13129 1.20002 7.79992 1.20002C7.46855 1.20002 7.19993 1.46864 7.19993 1.80001L7.19993 4.35146L6.6242 3.77573C6.38988 3.54141 6.00999 3.54141 5.77568 3.77573C5.54137 4.01004 5.54137 4.38993 5.77568 4.62425L7.37566 6.22423C7.60997 6.45854 7.98987 6.45854 8.22418 6.22423L9.82417 4.62425C10.0585 4.38993 10.0585 4.01004 9.82417 3.77573C9.58985 3.54141 9.20996 3.54141 8.97565 3.77573L8.39991 4.35146V1.80001Z" fill="black"/>
</g>
</g>
<defs>
<clipPath id="clip0_295_4695">
<rect width="14" height="14" fill="white"/>
</clipPath>
</defs>
</svg>

<svg xmlns="http://www.w3.org/2000/svg" fill="none" viewBox="0 0 14 14"><g clip-path="url(#a)"><path fill="#000" fill-rule="evenodd" d="M0 1A.6.6 0 0 1 .6.4h1.6a.6.6 0 0 1 .59.493L4.3 9.2h7.031l1.487-5.946a.6.6 0 0 1 1.164.292l-1.6 6.4a.6.6 0 0 1-.582.454h-8a.6.6 0 0 1-.59-.493L1.7 1.6H.6A.6.6 0 0 1 0 1m4 11.4c0 .664.536 1.2 1.2 1.2s1.2-.536 1.2-1.2-.536-1.2-1.2-1.2-1.2.536-1.2 1.2m5.2 0c0 .664.536 1.2 1.2 1.2s1.2-.536 1.2-1.2-.536-1.2-1.2-1.2-1.2.536-1.2 1.2M8.4 1.8a.6.6 0 1 0-1.2 0v2.551l-.576-.575a.6.6 0 1 0-.848.848l1.6 1.6a.6.6 0 0 0 .848 0l1.6-1.6a.6.6 0 1 0-.848-.848L8.4 4.35z" clip-rule="evenodd"/></g><defs><clipPath id="a"><path fill="#fff" d="M0 0h14v14H0z"/></clipPath></defs></svg>
